X:1
T:Title
%%score { 1 | 2 }
L:1/8
M:4/4
K:Eb
V:1 treble nm="Grand Piano"
V:2 bass 
V:1
 z4 z2[Q:1/4=100] EF | G>G GG G2 FE | B>B BG [GB]3 [GB] | c>c cc [Ac][GB]GE | %4
 [DF]>[DF] [DF][EG] [DF]3 [DF] | G>G GG GFEG | [GB]>[GB] [GB][EG] [GB]2 [Ac][Ad] | %7
 [Ge]>[Ge] [Ge][Ge] [Ge][EGB][B,E][CEF] |[M:17/16] [EG]<[EG][EG]>FE/-E/-E/-E/-E/-E-<E |[M:1/4] FG | %10
[M:4/4] A<A [B,FA]>[B,FA] [DFA][DFA]GA | B<B [GB]>[GB] [GB][GB][GB][GB] | =A>A GF ee d>c | %13
 [DFB]6 [EG][FA] | [GB][GB] [GB]>[Ac] [GB][B,EG][A,B,F][G,B,E] | %15
 [CEA]>[CEG] [CEA][EAc] [EGB]2 [EAc][Ad] | [Ge]>[Ge] [Ge][Ge] [Ge][EB][B,E][CEF] | %17
[M:7/8] [EG]<[EG][EG]>F E3 |] %18
V:2
 z4 z2 [E,G,][E,A,E] | [E,B,E]>[E,B,E] [E,B,E][E,B,E] [E,B,E]2 [E,A,E][E,G,] | %2
 [E,G,E]>[E,G,E] [E,G,E][E,B,E] [E,E]3 [E,E] | %3
 [A,EA]>[A,EA] [A,EA][A,EA][K:bass] [E,E][E,E][E,B,E][E,G,] | %4
 [B,,B,]>[B,,B,] [B,,B,][B,,B,] [B,,B,]3 [B,,B,] | %5
 [E,B,E]>[E,B,E] [E,B,E][E,B,E] [E,B,E][E,A,E][E,G,][E,B,E] | %6
 [E,E]>[E,E] [E,E][E,B,] [E,E]2 [A,E][F,B,] | [E,B,]>[E,B,] [E,B,][E,B,] [E,B,]E,G,,A,, | %8
[M:17/16] [B,,B,]<[B,,B,][B,,B,]>[B,,A,B,][E,G,B,]/-[E,G,B,]/-[E,G,B,]/-[E,G,B,]/-[E,G,B,]/-[E,G,B,]-<[E,G,B,] | %9
[M:1/4][K:treble] DE |[M:4/4] F<F[K:bass] B,,>B,, B,,B,,E[K:treble]F | %11
 G<G[K:bass] [E,E]>[E,E] [E,E][E,E][E,E][E,E] | %12
 [F,CF]>[F,CF] [F,B,F][F,=A,] [F,A,F][F,A,F] [F,B,F]>[F,EF] | B,,6 E,[E,E] | %14
 [E,E][E,E] [E,E]>[E,E] [E,E]E,E,E, | A,,>A,, A,,A,, E,2 A,[F,B,] | %16
 [E,B,]>[E,B,] [E,B,][E,B,] [E,B,][E,G,]G,,A,, | %17
[M:7/8] [B,,B,]<[B,,B,][B,,B,]>[B,,A,B,] [E,G,B,]3 |] %18

